!! 00000] TT[WS
!!!OTL: Mengjun shang qianxian
!!!ARE: Asia, China, Shanxi Lishi
!! Ethnic Group: Han
!! WII, 230 (3)
!!!SCT: J0744
!!!YEM: Copyright 1995, estate of Helmut Schaffrath.
**kern
*ICvox
*Ivox
*M2/4
*k[b-]
*F:
{8.f
16d
8f
8c
=1
8.cc
16dd
4cc
=2
8.ff
16dd
8cc
8a
=3
8.g
16f
4g}
=4
{8g
16g
16a
4cc
=5
8ff
16ff
16ee
8dd
8cc
=6
8cc
8a
8g
8d
=7
2c}
=8
{8.cc
16dd
8f
8g
=9
8.a
16g
4a
=10
16g
16a
16g
16f
8f
8c
=11
2d}
=12
{8.cc
16dd
8cc
8dd
=13
8.ff
16ff
8dd
8cc
=14
8cc
8dd
8cc
8f
=15
4a
16g
16f
8d
=16
2c}
==
!!!AGN: Xiaodiao. XÅshi, Xinminge
!!!ONB: ESAC (Essen Associative Code) Database: CHINA
!!!AMT: simple duple
!!!AIN: vox
!!!EED: Helmut Schaffrath
!!!EEV: 1.0
*-
